src/assets/icons/planet.svg

<svg width="96" height="60" viewBox="0 0 96 60" fill="none" xmlns="http://www.w3.org/2000/svg">
<g clip-path="url(#clip0)">
<path fill-rule="evenodd" clip-rule="evenodd" d="M65.4786 31.1621C66.4033 39.162 62.1989 47.202 54.4996 50.7923C45.7754 54.8604 35.5591 51.8188 30.3826 44.0449C31.0217 44.0817 31.8631 44.1233 32.7983 44.1519C34.8252 44.2138 37.3849 44.2184 39.2697 43.9545C41.985 43.5744 45.6586 42.5711 47.9099 41.9133C49.4317 41.4686 50.8762 40.8344 52.2356 40.0611C53.9172 39.1047 56.3809 37.6933 58.2605 36.574C59.9351 35.5767 62.0398 33.9633 63.6882 32.6354C64.3733 32.0836 64.9899 31.5726 65.4786 31.1621Z" fill="#72EBD2"/>
<mask id="mask0" style="mask-type:alpha" maskUnits="userSpaceOnUse" x="31" y="31" width="36" height="22">
<path fill-rule="evenodd" clip-rule="evenodd" d="M66.3468 31.1624C67.2715 39.1622 63.0671 47.2023 55.3677 50.7925C46.6436 54.8607 36.4272 51.8191 31.2507 44.0452C31.8899 44.082 32.7313 44.1236 33.6665 44.1522C35.6933 44.2141 38.2531 44.2186 40.1379 43.9548C42.8532 43.5747 46.5268 42.5714 48.778 41.9136C50.2999 41.4689 51.7443 40.8346 53.1038 40.0614C54.7854 39.105 57.2491 37.6936 59.1286 36.5743C60.8033 35.5769 62.9079 33.9636 64.5564 32.6357C65.2414 32.0839 65.8581 31.5729 66.3468 31.1624Z" fill="#72EBD2"/>
</mask>
<g mask="url(#mask0)">
<path d="M47.3504 32.5969C47.8896 32.3454 48.111 31.6789 47.845 31.1084C47.5789 30.5378 46.926 30.279 46.3868 30.5305L34.042 36.2869V36.2869C32.8507 36.5009 32.1487 34.9956 33.0785 34.2205V34.2205L45.4232 28.464C45.9624 28.2126 46.1839 27.5461 45.9178 26.9756C45.6517 26.405 44.9988 26.1462 44.4596 26.3976L36.9722 29.8891V29.8891C35.8201 30.0298 35.1602 28.6148 36.0086 27.8227V27.8227L43.4961 24.3312C44.0353 24.0798 44.2567 23.4133 43.9906 22.8427C43.7246 22.2722 43.0717 22.0134 42.5325 22.2648L38.4094 24.1875V24.1875C37.218 24.4014 36.5161 22.8962 37.4458 22.1211V22.1211L41.5689 20.1984C42.1081 19.947 42.3295 19.2805 42.0635 18.7099C41.7974 18.1394 41.1445 17.8806 40.6053 18.132L31.668 22.2996V22.2996C30.4766 22.5135 29.7747 21.0083 30.7044 20.2332V20.2332L39.6417 16.0656C40.1809 15.8142 40.4024 15.1477 40.1363 14.5771C39.8703 14.0066 39.2174 13.7478 38.6782 13.9992L19.6445 22.8748L36.0253 58.0037L55.0591 49.1281C55.5983 48.8767 55.8197 48.2102 55.5537 47.6396C55.2876 47.069 54.6347 46.8103 54.0955 47.0617L47.2609 50.2487V50.2487C46.0695 50.4627 45.3676 48.9574 46.2973 48.1823V48.1823L53.1319 44.9953C53.6711 44.7438 53.8926 44.0774 53.6265 43.5068C53.3604 42.9362 52.7075 42.6774 52.1683 42.9289L41.2541 48.0183V48.0183C40.2582 47.9108 39.7327 46.7839 40.2905 45.9519V45.9519L51.2048 40.8625C51.744 40.611 51.9654 39.9446 51.6993 39.374C51.4333 38.8034 50.7804 38.5446 50.2412 38.7961L43.9818 41.7149V41.7149C42.7904 41.9289 42.0885 40.4236 43.0182 39.6485V39.6485L49.2776 36.7297C49.8168 36.4782 50.0383 35.8118 49.7722 35.2412C49.5061 34.6706 48.8532 34.4118 48.314 34.6633L32.639 41.9727V41.9727C31.4476 42.1866 30.7456 40.6814 31.6753 39.9062V39.9062L39.0512 36.4668L47.3504 32.5969Z" fill="#5ECFC6"/>
</g>
<g filter="url(#filter0_d)">
<path d="M13.2644 29.8966C12.8454 28.7455 13.4389 27.4726 14.59 27.0537L68.7816 7.32956C69.9327 6.91058 71.2056 7.5041 71.6245 8.65523C72.0435 9.80635 71.45 11.0792 70.2989 11.4981L63.2123 14.0774V14.0774C61.5731 15.1229 62.4984 17.6651 64.4261 17.4123V17.4123L79.8498 11.7985C81.0009 11.3795 82.2738 11.9731 82.6927 13.1242C83.1117 14.2753 82.5182 15.5481 81.3671 15.9671L78.449 17.0292V17.0292C76.8711 18.0949 77.769 20.5619 79.6628 20.364V20.364L89.6674 16.7227C90.8186 16.3037 92.0914 16.8972 92.5104 18.0483C92.9293 19.1995 92.3358 20.4723 91.1847 20.8912L70.7586 28.3257V28.3257C69.036 29.342 69.9995 31.9893 71.9724 31.6606V31.6606L81.977 28.0192C83.1281 27.6002 84.4009 28.1938 84.8199 29.3449C85.2389 30.496 84.6454 31.7688 83.4942 32.1878L20.1318 55.2498C18.9807 55.6688 17.7079 55.0753 17.2889 53.9242C16.8699 52.773 17.4634 51.5002 18.6146 51.0813L21.9494 49.8675V49.8675C23.8588 48.9221 22.806 46.0294 20.7356 46.5326V46.5326L9.06359 50.7809C7.91247 51.1998 6.63966 50.6063 6.22068 49.4552C5.80171 48.3041 6.39523 47.0313 7.54635 46.6123L16.3004 43.4261V43.4261C17.9396 42.3807 17.0143 39.8384 15.0866 40.0912V40.0912L10.5011 41.7602C9.35002 42.1792 8.07721 41.5856 7.65823 40.4345C7.23926 39.2834 7.83278 38.0106 8.98391 37.5916L24.8245 31.8261V31.8261C26.3475 30.7429 25.4737 28.3421 23.6107 28.4912V28.4912L16.1073 31.2223C14.9562 31.6412 13.6833 31.0477 13.2644 29.8966Z" fill="#65688B"/>
</g>
<g filter="url(#filter1_d)">
<path d="M56.9366 33.1181C58.4397 32.223 60.4206 30.7121 62.0632 29.389L62.6792 28.8795C63.1397 28.4986 63.5135 28.0236 63.7754 27.4864V27.4864C64.2658 26.4804 64.3622 25.3081 63.9214 24.2793C63.8825 24.1886 63.8445 24.103 63.8076 24.024C59.3202 14.4006 47.8811 10.2371 38.2577 14.7246C29.6414 18.7425 25.402 28.3332 27.8301 37.2039C28.0527 38.0169 28.5555 38.7194 29.205 39.2567V39.2567C29.9587 39.8802 30.891 40.2514 31.8684 40.2931C32.1897 40.3068 32.5313 40.3196 32.8865 40.3305C34.9033 40.3921 37.2702 40.3876 38.9174 40.157C41.4242 39.8061 44.9334 38.8541 47.1881 38.1952C49.697 37.1992 48.6119 37.6333 50.9568 36.5791C52.6367 35.6236 55.0811 34.2231 56.9366 33.1181Z" fill="#72EBD2"/>
</g>
<mask id="mask1" style="mask-type:alpha" maskUnits="userSpaceOnUse" x="27" y="12" width="38" height="29">
<path d="M56.9366 33.1179C58.4397 32.2228 60.4206 30.7119 62.0632 29.3888L62.6792 28.8792C63.1397 28.4983 63.5135 28.0234 63.7754 27.4862V27.4862C64.2658 26.4801 64.3622 25.3079 63.9214 24.2791C63.8825 24.1884 63.8445 24.1027 63.8076 24.0238C59.3202 14.4004 47.8811 10.2369 38.2577 14.7244C29.6414 18.7422 25.402 28.333 27.8301 37.2037C28.0527 38.0166 28.5555 38.7192 29.205 39.2565V39.2565C29.9587 39.88 30.891 40.2512 31.8684 40.2929C32.1897 40.3066 32.5313 40.3194 32.8865 40.3303C34.9033 40.3919 37.2702 40.3874 38.9174 40.1568C41.4242 39.8059 44.9334 38.8538 47.1881 38.195C49.697 37.199 48.6119 37.6331 50.9568 36.5788C52.6367 35.6234 55.0811 34.2229 56.9366 33.1179Z" fill="#72EBD2"/>
</mask>
<g mask="url(#mask1)">
<path d="M45.6072 34.9571C46.1464 34.7057 46.3679 34.0392 46.1018 33.4686C45.8357 32.8981 45.1828 32.6393 44.6436 32.8907L35.4458 37.1797V37.1797C34.2545 37.3937 33.5525 35.8884 34.4823 35.1133V35.1133L48.4005 28.6231C48.9397 28.3717 49.1612 27.7052 48.8951 27.1346C48.629 26.5641 47.9761 26.3053 47.4369 26.5567L38.376 30.7819V30.7819C37.2239 30.9227 36.5641 29.5076 37.4124 28.7155V28.7155L43.7197 25.7744C44.259 25.5229 44.4804 24.8564 44.2143 24.2859C43.9483 23.7153 43.2954 23.4565 42.7562 23.708L39.8132 25.0803V25.0803C38.6218 25.2943 37.9199 23.789 38.8496 23.0139V23.0139L44.9396 20.1741C45.4788 19.9227 45.7002 19.2562 45.4341 18.6856C45.1681 18.115 44.5152 17.8563 43.976 18.1077L33.8586 22.8255V22.8255C32.6672 23.0395 31.9653 21.5342 32.895 20.7591V20.7591L37.1118 18.7928C37.651 18.5413 37.8725 17.8749 37.6064 17.3043C37.3404 16.7337 36.6875 16.4749 36.1483 16.7264L21.0483 23.7676L37.4291 58.8965L56.4629 50.0209C57.0021 49.7695 57.2235 49.103 56.9575 48.5324C56.6914 47.9618 56.0385 47.7031 55.4993 47.9545L48.6647 51.1415V51.1415C47.4733 51.3555 46.7714 49.8502 47.7011 49.0751V49.0751L54.5357 45.8881C55.0749 45.6367 55.2964 44.9702 55.0303 44.3996C54.7642 43.829 54.1113 43.5703 53.5721 43.8217L42.6579 48.9111V48.9111C41.662 48.8036 41.1365 47.6767 41.6943 46.8447V46.8447L52.6086 41.7553C53.1478 41.5039 53.3692 40.8374 53.1032 40.2668C52.8371 39.6962 52.1842 39.4375 51.645 39.6889L45.3856 42.6077V42.6077C44.1942 42.8217 43.4923 41.3164 44.422 40.5413V40.5413L50.6814 37.6225C51.2206 37.3711 51.4421 36.7046 51.176 36.134C50.9099 35.5634 50.257 35.3046 49.7178 35.5561L34.0428 42.8655V42.8655C32.8514 43.0794 32.1494 41.5742 33.0791 40.7991V40.7991L40.455 37.3597L45.6072 34.9571Z" fill="#5ECFC6"/>
</g>
</g>
<defs>
<filter id="filter0_d" x="2.08643" y="6.19519" width="94.5583" height="56.189" filterUnits="userSpaceOnUse" color-interpolation-filters="sRGB">
<feFlood flood-opacity="0" result="BackgroundImageFix"/>
<feColorMatrix in="SourceAlpha" type="matrix" values="0 0 0 0 0 0 0 0 0 0 0 0 0 0 0 0 0 0 127 0" result="hardAlpha"/>
<feOffset dy="3"/>
<feGaussianBlur stdDeviation="2"/>
<feComposite in2="hardAlpha" operator="out"/>
<feColorMatrix type="matrix" values="0 0 0 0 0.396078 0 0 0 0 0.415686 0 0 0 0 0.54902 0 0 0 0.45 0"/>
<feBlend mode="normal" in2="BackgroundImageFix" result="effect1_dropShadow"/>
<feBlend mode="normal" in="SourceGraphic" in2="effect1_dropShadow" result="shape"/>
</filter>
<filter id="filter1_d" x="-12.8477" y="-7.08133" width="117.051" height="107.445" filterUnits="userSpaceOnUse" color-interpolation-filters="sRGB">
<feFlood flood-opacity="0" result="BackgroundImageFix"/>
<feColorMatrix in="SourceAlpha" type="matrix" values="0 0 0 0 0 0 0 0 0 0 0 0 0 0 0 0 0 0 127 0" result="hardAlpha"/>
<feOffset dy="20"/>
<feGaussianBlur stdDeviation="20"/>
<feComposite in2="hardAlpha" operator="out"/>
<feColorMatrix type="matrix" values="0 0 0 0 0.447059 0 0 0 0 0.921569 0 0 0 0 0.823529 0 0 0 0.4 0"/>
<feBlend mode="normal" in2="BackgroundImageFix" result="effect1_dropShadow"/>
<feBlend mode="normal" in="SourceGraphic" in2="effect1_dropShadow" result="shape"/>
</filter>
<clipPath id="clip0">
<rect width="96" height="58.0858" fill="white" transform="translate(0 0.957092)"/>
</clipPath>
</defs>
</svg>

<svg xmlns="http://www.w3.org/2000/svg" fill="none" viewBox="0 0 96 60">
  <g clip-path="url(#clip0_859:2803)">
    <path fill="#72EBD2" fill-rule="evenodd" d="M65.479 31.162c.924 8-3.28 16.04-10.98 19.63-8.724 4.068-18.94 1.027-24.116-6.747.639.037 1.48.078 2.415.107 2.027.062 4.587.066 6.472-.197 2.715-.38 6.389-1.384 8.64-2.042a20.235 20.235 0 004.326-1.852 386.12 386.12 0 006.025-3.487c1.674-.997 3.779-2.61 5.427-3.939.685-.551 1.302-1.062 1.79-1.473z" clip-rule="evenodd"/>
    <mask id="a" width="36" height="22" x="31" y="31" maskUnits="userSpaceOnUse" style="mask-type:alpha">
      <path fill="#72EBD2" fill-rule="evenodd" d="M66.347 31.162c.925 8-3.28 16.04-10.98 19.63-8.723 4.069-18.94 1.027-24.116-6.747.639.037 1.48.079 2.415.107 2.027.062 4.587.067 6.472-.197 2.715-.38 6.389-1.384 8.64-2.041a20.24 20.24 0 004.326-1.853 385.665 385.665 0 006.025-3.487c1.674-.997 3.779-2.61 5.427-3.938.685-.552 1.302-1.063 1.79-1.474z" clip-rule="evenodd"/>
    </mask>
    <g mask="url(#a)">
      <path fill="#5ECFC6" d="M47.35 32.597c.54-.252.761-.918.495-1.489-.266-.57-.919-.829-1.458-.578l-12.345 5.757c-1.191.214-1.893-1.291-.964-2.066l12.345-5.757c.54-.251.76-.918.495-1.488-.266-.571-.92-.83-1.458-.578l-7.488 3.491c-1.152.14-1.812-1.274-.963-2.066l7.487-3.492c.54-.251.76-.918.495-1.488-.266-.57-.92-.83-1.459-.578l-4.123 1.922c-1.191.214-1.893-1.29-.963-2.066l4.123-1.923c.54-.251.76-.918.494-1.488s-.919-.83-1.458-.578L31.668 22.3c-1.191.213-1.893-1.292-.964-2.067l8.938-4.167c.539-.252.76-.918.494-1.489-.266-.57-.919-.83-1.458-.578l-19.033 8.876 16.38 35.129 19.034-8.876c.54-.251.76-.918.495-1.488-.266-.571-.92-.83-1.459-.578l-6.834 3.187c-1.192.214-1.893-1.292-.964-2.067l6.835-3.187c.54-.251.76-.918.495-1.488-.267-.57-.92-.83-1.459-.578l-10.914 5.09a1.332 1.332 0 01-.963-2.067l10.914-5.09c.539-.251.76-.917.494-1.488-.266-.57-.919-.83-1.458-.578l-6.26 2.919c-1.19.214-1.892-1.291-.963-2.067l6.26-2.918c.539-.252.76-.918.494-1.489-.266-.57-.919-.83-1.458-.578l-15.675 7.31c-1.191.214-1.893-1.292-.964-2.067l7.376-3.44 8.3-3.87z"/>
    </g>
    <path fill="#65688B" d="M13.264 29.897a2.218 2.218 0 011.326-2.843L68.782 7.33a2.218 2.218 0 011.517 4.168l-7.087 2.58c-1.639 1.045-.714 3.587 1.214 3.334L79.85 11.8a2.218 2.218 0 011.517 4.168L78.45 17.03c-1.578 1.066-.68 3.533 1.214 3.335l10.004-3.641a2.218 2.218 0 111.518 4.168l-20.426 7.435c-1.723 1.016-.76 3.663 1.213 3.335l10.005-3.642a2.218 2.218 0 011.517 4.169L20.132 55.25a2.218 2.218 0 11-1.517-4.169l3.334-1.214c1.91-.945.857-3.838-1.213-3.334L9.064 50.78a2.218 2.218 0 01-1.518-4.169l8.754-3.186c1.64-1.045.714-3.588-1.213-3.335l-4.586 1.67a2.218 2.218 0 01-1.517-4.17l15.84-5.765c1.523-1.083.65-3.484-1.213-3.335l-7.504 2.731a2.218 2.218 0 01-2.843-1.325z"/>
    <path fill="#72EBD2" d="M56.937 33.118c1.503-.895 3.484-2.406 5.126-3.729l.616-.51c.46-.38.834-.855 1.096-1.393.49-1.006.587-2.178.146-3.207a8.86 8.86 0 00-.113-.255c-4.488-9.623-15.927-13.787-25.55-9.3-8.617 4.018-12.856 13.61-10.428 22.48.223.813.726 1.515 1.375 2.053a4.485 4.485 0 002.663 1.036c.322.014.663.027 1.018.038 2.017.061 4.384.057 6.031-.174 2.507-.35 6.016-1.303 8.271-1.962 2.509-.996 1.424-.562 3.769-1.616 1.68-.955 4.124-2.356 5.98-3.46z"/>
    <mask id="b" width="38" height="29" x="27" y="12" maskUnits="userSpaceOnUse" style="mask-type:alpha">
      <path fill="#72EBD2" d="M56.937 33.118c1.503-.895 3.484-2.406 5.126-3.73l.616-.509c.46-.38.834-.856 1.096-1.393.49-1.006.587-2.178.146-3.207a8.739 8.739 0 00-.113-.255c-4.488-9.624-15.927-13.787-25.55-9.3-8.617 4.018-12.856 13.609-10.428 22.48.223.813.726 1.515 1.375 2.053a4.485 4.485 0 002.663 1.036c.322.014.663.026 1.018.037 2.017.062 4.384.057 6.031-.173 2.507-.351 6.016-1.303 8.271-1.962 2.509-.996 1.424-.562 3.769-1.616a383.04 383.04 0 005.98-3.461z"/>
    </mask>
    <g mask="url(#b)">
      <path fill="#5ECFC6" d="M45.607 34.957c.54-.251.76-.918.495-1.488-.266-.57-.92-.83-1.458-.578l-9.198 4.289c-1.191.214-1.893-1.292-.964-2.067l13.919-6.49c.539-.251.76-.918.494-1.488s-.919-.83-1.458-.578l-9.061 4.225c-1.152.14-1.812-1.274-.964-2.067l6.308-2.94c.539-.252.76-.919.494-1.49-.266-.57-.919-.829-1.458-.577l-2.943 1.372c-1.191.214-1.893-1.291-.963-2.066l6.09-2.84c.539-.251.76-.918.494-1.488-.266-.571-.919-.83-1.458-.578l-10.117 4.718c-1.192.213-1.894-1.292-.964-2.067l4.217-1.966c.539-.252.76-.918.494-1.489-.266-.57-.919-.83-1.458-.578l-15.1 7.042L37.43 58.897l19.034-8.876c.54-.252.76-.918.495-1.489-.267-.57-.92-.829-1.459-.577l-6.834 3.187c-1.192.213-1.894-1.292-.964-2.067l6.835-3.187c.539-.251.76-.918.494-1.488-.266-.571-.919-.83-1.458-.578l-10.914 5.09a1.332 1.332 0 01-.964-2.067l10.915-5.09c.539-.251.76-.918.494-1.488s-.919-.83-1.458-.578l-6.26 2.919c-1.19.214-1.893-1.292-.963-2.067l6.26-2.918c.539-.252.76-.918.494-1.489-.266-.57-.919-.83-1.458-.578l-15.675 7.31c-1.192.213-1.894-1.292-.964-2.067l7.376-3.44 5.152-2.402z"/>
    </g>
  </g>
  <defs>
    <clipPath id="clip0_859:2803">
      <path fill="#fff" d="M0 0h96v58.086H0z" transform="translate(0 .957)"/>
    </clipPath>
  </defs>
</svg>
